!!!SOCIAL_FUNCTION:	songs to insure success
!!!PDT:	1909
!!!OTL: No_67_Hunting_Song_(c).krn
!!!REG: Great_Lakes
!!!LANG: Non-Tone
!!!LING_GROUP: Algonquin
**kern
*staff1
*clefF4
*k[f#]
*M2/4
8d\L
8d\J
=1
4B\
8.B\L
16B\Jk
=2
2A\
=3
4A\
4A\
=4||
*M3/4
2G\
8.G\L
16E\Jk
=5||
*M4/4
2D\
4.E\
8G\
=6
4G\
8A\L
8G\J
4E\
8F#\L
8E\J
=7||
*M2/4
8D\L
8D\J
4D\
=8||
*M3/4
2.D\
=9||
*M2/4
4D\
4D\
==
*-
